static/assets/template/assets/img/icons/essential/detailed/Running.svg

<svg height="104" viewBox="0 0 151 104" width="151" xmlns="http://www.w3.org/2000/svg"><g fill="none" fill-rule="evenodd" transform="translate(2 2)"><g stroke-linecap="round" stroke-linejoin="round" stroke-width="3" transform="translate(0 99)"><path d="m1.5.4h-1.3"/><path d="m36.9.4h-30.4"/><path d="m43.5.4h-1.2"/><path d="m141.1.4h-90.9"/><path d="m147 .4h-1.9"/></g><path d="m139.9 93c-2.4 3.5-6.8 5-11 5.8-18.4 3.5-37.4-2.4-53.9-11.3-16.4-8.9-31-20.9-46.8-31-2.8-1.8-5.8-3.7-7.6-6.6-1-1.7-1.4-3.7-.9-5.6 0-.4.3-.9.4-1.2.2-.4.4-.9.6-1.3 1.4-2.9 2-3.2 7.1-10.2 2.5-3.4 4.9-6.7 7.5-9.9 4.8-5.8 9.9-11.4 15.3-16.8 1-1 2-2 3.3-2.4s3-.1 3.6 1.1c.5 1 .3 2.2.1 3.3-1 5.1-.8 10.6 2 15 3.2 5 9.3 7.6 15.2 7.9v-1.3c-.5-10.7 8.7-24.6 20.5-21.6-.8 8.5-1.6 14.7-2.2 18.6.5-.2 1.1-.5 1.6-.7 5.5 10 11 20.1 16.5 30.1 2.1 3.8 4.3 7.7 7.9 10.2 5.1 3.5 11 5.4 16.1 9.9 3.8 3.3 6.1 6.2 6.8 10.3.4 3.4-.2 4.8-2.1 7.7z" fill-rule="nonzero"/><path d="m140.4 91.9c-.3.5-.7 1.1-1.1 1.8-2.2 3.1-12.7 4.5-16.4 5.2-16.5 3.1-33.6-2.1-48.3-10.2-14.8-8-27.8-18.8-42-27.8-2.6-1.6-5.2-3.3-6.8-5.9-.9-1.5-1.3-3.3-.8-5 0-.3.3-.8.4-1.1.2-.4.3-.8.5-1.2 1.2-2.5 1.7-2.8 5.8-8.3.2-.3.4-.5.6-.8 2.2-3 4.4-6 6.8-8.9 4.3-5.2 8.9-10.3 13.7-15.1.9-.9 1.8-1.8 2.9-2.1 1.2-.4 2.6-.1 3.2 1 .5.9.3 2 .1 2.9-.9 4.6-.7 1.9 1.8 5.8 2.9 4.5 8.3 6.8 13.7 7.1l2.5 1.3c.2-.6.3-1.2.5-1.7 3.2-11 7.5-19.4 17.6-16.9-.2 2.4-.4 4.2-.6 5.7-4.5 2.8-11.9 7.9-11.9 7.9 6.5 16.3 16.3 32.7 21.8 38.1 3.7 3.7 8.3 3.4 13.3.8.9 1.1 1.9 2.1 3.1 2.9 4.6 3.1 9.8 3.8 14.4 7.7 3.4 3 5.5 7.8 6.1 11.5.1 2.4-.1 3.7-.9 5.3z" fill-rule="nonzero"/><path d="m110.1 99.8c-12.3-.6-24.6-5-35.6-11-14.8-8-27.8-18.8-42-27.8-2.6-1.6-5.2-3.3-6.8-5.9-.9-1.5-1.3-3.3-.8-5 0-.3.3-.8.4-1.1.2-.4.3-.8.5-1.2 1.2-2.5 1.7-2.8 5.8-8.3 20.3 21.1 48.8 48.9 108.8 52.4-.3.5-.7 1.1-1.1 1.8-2.2 3.1-12.7 4.5-16.4 5.2-4.3.8-8.6 1.1-12.8.9" fill="#bad8ff" fill-rule="nonzero"/><path d="m95 12c-.6 7.3-1.4 9.7-1.9 13-4 1.3-9.4 2.9-15.7 3.9 3.1-11 7.4-19.4 17.6-16.9z" fill="#bad8ff" fill-rule="nonzero"/><g stroke-linecap="round" stroke-linejoin="round" stroke-width="3"><path d="m42.3 42.4c12.5 7.5 26.7 16.4 34.9 23 11.4 9.3 27.6 18.5 37.6 19.1s26.4 1.6 26.4 1.6"/><path d="m57.1 11.2c0-.1 0-.3 0-.4"/><path d="m119 99.8c3.3-.1 6.5-.4 9.8-1 4.2-.8 8.6-2.3 11-5.8 2-2.9 2.5-4.3 2-7.8-.6-4.1-2.9-7-6.8-10.3-5.1-4.4-11-6.4-16.1-9.9-3.6-2.4-5.8-6.4-7.9-10.2-5.5-10-11-20.1-16.5-30.1-5.9 2.6-12 5-18.4 5.1s-13.2-2.5-16.7-7.9c-.2-.3-.4-.7-.6-1.1"/><path d="m75 87.5c10.6 5.8 22.4 10.3 34.3 11.8"/><path d="m57.8 5.6c.1-.7 0-1.3-.3-1.9-.7-1.2-2.3-1.5-3.6-1.1s-2.3 1.4-3.3 2.4c-5.3 5.4-10.4 11-15.3 16.8-2.7 3.2-5.1 6.6-7.5 9.9-5.1 7-5.6 7.3-7.1 10.2-.2.4-.4.9-.6 1.3-.1.3-.4.8-.4 1.2-.5 1.9-.1 3.9.9 5.6 1.8 2.9 4.7 4.7 7.6 6.6 13 8.3 25.1 17.8 38.2 25.9"/><path d="m75.5 22.4c2.3-9.2 10.2-18 19.8-15.6-1.4 15.3-2.1 17.3-2.1 17.3"/><path d="m99.8 33.1 4.1-2.3"/><path d="m105.4 42.7 4.1-2.3"/><path d="m111.3 54.5 4.1-2.4"/><path d="m76.8 50.4 11.1-6.8"/><path d="m65.9 57.2 3.9-2.4"/><path d="m78.7 64.8 15.3-9.6"/><path d="m92.4 73.6 8.9-5.5"/><path d="m27.6.4h-2.5"/><path d="m43.1.4h-8"/><path d="m6.6 7.8h-6"/><path d="m35.5 7.8h-21.4"/><path d="m10.6 39.7h4.3"/></g></g></svg>

<?xml version="1.0" encoding="UTF-8"?>
<svg width="151px" height="104px" viewBox="0 0 151 104" version="1.1" xmlns="http://www.w3.org/2000/svg" xmlns:xlink="http://www.w3.org/1999/xlink">
    <!-- Generator: Sketch 51.2 (57519) - http://www.bohemiancoding.com/sketch -->
    <title>Running</title>
    <desc>Created with Sketch.</desc>
    <defs></defs>
    <g id="Page-1" stroke="none" stroke-width="1" fill="none" fill-rule="evenodd">
        <g id="Running" transform="translate(2.000000, 2.000000)">
            <g id="Group" transform="translate(0.000000, 99.000000)" class="stroke-primary-300" stroke-linecap="round" stroke-linejoin="round" stroke-width="3">
                <path d="M1.5,0.4 L0.2,0.4" id="Shape"></path>
                <path d="M36.9,0.4 L6.5,0.4" id="Shape"></path>
                <path d="M43.5,0.4 L42.3,0.4" id="Shape"></path>
                <path d="M141.1,0.4 L50.2,0.4" id="Shape"></path>
                <path d="M147,0.4 L145.1,0.4" id="Shape"></path>
            </g>
            <path d="M139.9,93 C137.5,96.5 133.1,98 128.9,98.8 C110.5,102.3 91.5,96.4 75,87.5 C58.6,78.6 44,66.6 28.2,56.5 C25.4,54.7 22.4,52.8 20.6,49.9 C19.6,48.2 19.2,46.2 19.7,44.3 C19.7,43.9 20,43.4 20.1,43.1 C20.3,42.7 20.5,42.2 20.7,41.8 C22.1,38.9 22.7,38.6 27.8,31.6 C30.3,28.2 32.7,24.9 35.3,21.7 C40.1,15.9 45.2,10.3 50.6,4.9 C51.6,3.9 52.6,2.9 53.9,2.5 C55.2,2.1 56.9,2.4 57.5,3.6 C58,4.6 57.8,5.8 57.6,6.9 C56.6,12 56.8,17.5 59.6,21.9 C62.8,26.9 68.9,29.5 74.8,29.8 L74.8,28.5 C74.3,17.8 83.5,3.9 95.3,6.9 C94.5,15.4 93.7,21.6 93.1,25.5 C93.6,25.3 94.2,25 94.7,24.8 C100.2,34.8 105.7,44.9 111.2,54.9 C113.3,58.7 115.5,62.6 119.1,65.1 C124.2,68.6 130.1,70.5 135.2,75 C139,78.3 141.3,81.2 142,85.3 C142.4,88.7 141.8,90.1 139.9,93 Z" id="Shape" class="fill-neutral" fill-rule="nonzero"></path>
            <path d="M140.4,91.9 C140.1,92.4 139.7,93 139.3,93.7 C137.1,96.8 126.6,98.2 122.9,98.9 C106.4,102 89.3,96.8 74.6,88.7 C59.8,80.7 46.8,69.9 32.6,60.9 C30,59.3 27.4,57.6 25.8,55 C24.9,53.5 24.5,51.7 25,50 C25,49.7 25.3,49.2 25.4,48.9 C25.6,48.5 25.7,48.1 25.9,47.7 C27.1,45.2 27.6,44.9 31.7,39.4 C31.9,39.1 32.1,38.9 32.3,38.6 C34.5,35.6 36.7,32.6 39.1,29.7 C43.4,24.5 48,19.4 52.8,14.6 C53.7,13.7 54.6,12.8 55.7,12.5 C56.9,12.1 58.3,12.4 58.9,13.5 C59.4,14.4 59.2,15.5 59,16.4 C58.1,21 58.3,18.3 60.8,22.2 C63.7,26.7 69.1,29 74.5,29.3 L77,30.6 C77.2,30 77.3,29.4 77.5,28.9 C80.7,17.9 85,9.5 95.1,12 C94.9,14.4 94.7,16.2 94.5,17.7 C90,20.5 82.6,25.6 82.6,25.6 C89.1,41.9 98.9,58.3 104.4,63.7 C108.1,67.4 112.7,67.1 117.7,64.5 C118.6,65.6 119.6,66.6 120.8,67.4 C125.4,70.5 130.6,71.2 135.2,75.1 C138.6,78.1 140.7,82.9 141.3,86.6 C141.4,89 141.2,90.3 140.4,91.9 Z" id="Shape" class="fill-primary-100" fill-rule="nonzero"></path>
            <path d="M110.1,99.8 C97.8,99.2 85.5,94.8 74.5,88.8 C59.7,80.8 46.7,70 32.5,61 C29.9,59.4 27.3,57.7 25.7,55.1 C24.8,53.6 24.4,51.8 24.9,50.1 C24.9,49.8 25.2,49.3 25.3,49 C25.5,48.6 25.6,48.2 25.8,47.8 C27,45.3 27.5,45 31.6,39.5 C51.9,60.6 80.4,88.4 140.4,91.9 C140.1,92.4 139.7,93 139.3,93.7 C137.1,96.8 126.6,98.2 122.9,98.9 C118.6,99.7 114.3,100 110.1,99.8" id="Shape" fill="#BAD8FF" fill-rule="nonzero"></path>
            <path d="M95,12 C94.4,19.3 93.6,21.7 93.1,25 C89.1,26.3 83.7,27.9 77.4,28.9 C80.5,17.9 84.8,9.5 95,12 Z" id="Shape" fill="#BAD8FF" fill-rule="nonzero"></path>
            <path d="M42.3,42.4 C54.8,49.9 69,58.8 77.2,65.4 C88.6,74.7 104.8,83.9 114.8,84.5 C124.8,85.1 141.2,86.1 141.2,86.1" id="Shape" class="stroke-primary" stroke-width="3" stroke-linecap="round" stroke-linejoin="round"></path>
            <path d="M57.1,11.2 C57.1,11.1 57.1,10.9 57.1,10.8" id="Shape" class="stroke-primary" stroke-width="3" stroke-linecap="round" stroke-linejoin="round"></path>
            <path d="M119,99.8 C122.3,99.7 125.5,99.4 128.8,98.8 C133,98 137.4,96.5 139.8,93 C141.8,90.1 142.3,88.7 141.8,85.2 C141.2,81.1 138.9,78.2 135,74.9 C129.9,70.5 124,68.5 118.9,65 C115.3,62.6 113.1,58.6 111,54.8 C105.5,44.8 100,34.7 94.5,24.7 C88.6,27.3 82.5,29.7 76.1,29.8 C69.7,29.9 62.9,27.3 59.4,21.9 C59.2,21.6 59,21.2 58.8,20.8" id="Shape" class="stroke-primary" stroke-width="3" stroke-linecap="round" stroke-linejoin="round"></path>
            <path d="M75,87.5 C85.6,93.3 97.4,97.8 109.3,99.3" id="Shape" class="stroke-primary" stroke-width="3" stroke-linecap="round" stroke-linejoin="round"></path>
            <path d="M57.8,5.6 C57.9,4.9 57.8,4.3 57.5,3.7 C56.8,2.5 55.2,2.2 53.9,2.6 C52.6,3 51.6,4 50.6,5 C45.3,10.4 40.2,16 35.3,21.8 C32.6,25 30.2,28.4 27.8,31.7 C22.7,38.7 22.2,39 20.7,41.9 C20.5,42.3 20.3,42.8 20.1,43.2 C20,43.5 19.7,44 19.7,44.4 C19.2,46.3 19.6,48.3 20.6,50 C22.4,52.9 25.3,54.7 28.2,56.6 C41.2,64.9 53.3,74.4 66.4,82.5" id="Shape" class="stroke-primary" stroke-width="3" stroke-linecap="round" stroke-linejoin="round"></path>
            <path d="M75.5,22.4 C77.8,13.2 85.7,4.4 95.3,6.8 C93.9,22.1 93.2,24.1 93.2,24.1" id="Shape" class="stroke-primary" stroke-width="3" stroke-linecap="round" stroke-linejoin="round"></path>
            <path d="M99.8,33.1 L103.9,30.8" id="Shape" class="stroke-primary" stroke-width="3" stroke-linecap="round" stroke-linejoin="round"></path>
            <path d="M105.4,42.7 L109.5,40.4" id="Shape" class="stroke-primary" stroke-width="3" stroke-linecap="round" stroke-linejoin="round"></path>
            <path d="M111.3,54.5 L115.4,52.1" id="Shape" class="stroke-primary" stroke-width="3" stroke-linecap="round" stroke-linejoin="round"></path>
            <path d="M76.8,50.4 L87.9,43.6" id="Shape" class="stroke-primary" stroke-width="3" stroke-linecap="round" stroke-linejoin="round"></path>
            <path d="M65.9,57.2 L69.8,54.8" id="Shape" class="stroke-primary" stroke-width="3" stroke-linecap="round" stroke-linejoin="round"></path>
            <path d="M78.7,64.8 L94,55.2" id="Shape" class="stroke-primary" stroke-width="3" stroke-linecap="round" stroke-linejoin="round"></path>
            <path d="M92.4,73.6 L101.3,68.1" id="Shape" class="stroke-primary" stroke-width="3" stroke-linecap="round" stroke-linejoin="round"></path>
            <path d="M27.6,0.4 L25.1,0.4" id="Shape" class="stroke-primary-300" stroke-width="3" stroke-linecap="round" stroke-linejoin="round"></path>
            <path d="M43.1,0.4 L35.1,0.4" id="Shape" class="stroke-primary-300" stroke-width="3" stroke-linecap="round" stroke-linejoin="round"></path>
            <path d="M6.6,7.8 L0.6,7.8" id="Shape" class="stroke-primary-300" stroke-width="3" stroke-linecap="round" stroke-linejoin="round"></path>
            <path d="M35.5,7.8 L14.1,7.8" id="Shape" class="stroke-primary-300" stroke-width="3" stroke-linecap="round" stroke-linejoin="round"></path>
            <path d="M10.6,39.7 L14.9,39.7" id="Shape" class="stroke-primary-300" stroke-width="3" stroke-linecap="round" stroke-linejoin="round"></path>
        </g>
    </g>
</svg>
